dist/svgs/netease.svg

<svg xmlns="http://www.w3.org/2000/svg" viewBox="0 0 521 512"><path d="M296 123q-24 2-47.5 3.5T201 128q-6 0-12.5-5.5T176 112q6-5 12-12t13-8q23-2 47-1t47 0q13-1 25.5-.5T333 109q0 5-12 10.5T300 130q-1-2-2-3.5t-2-3.5zM86 512q-5-5-12.5-9.5T64 491q-1-7 5-17t12-12q36-6 68-20.5t61-33 57-40 57-41.5q2-2 5-4t5-3q6-1 12 0t12 1q-2 5-2.5 11.5T352 342q-17 16-34 30t-33 30q-38 37-83.5 60.5T108 506q-4 2-8.5 3zm183-67q21 1 40.5 3.5t38.5-.5q29-5 49.5-24t32.5-45q15-32 2-54t-48-26q-10-2-16-11-15-22-30.5-24T301 279q-35 28-70.5 55T158 386q-20 13-41.5 21T72 420q-7 2-16.5-5T37 403q7-6 13-14.5T64 378q30-5 56.5-16.5T172 335t49-32 48-33q3-2 3.5-8t3.5-10q5-7 10-16t10-9q35 0 70 4t65 30q21 17 33.5 43t13 55-14 58-47.5 51q-34 22-71 35-33 12-54-4.5T269 445zm-78-221q-12-1-23.5-1.5t-22-3-19.5-9-16-18.5q-5-8-8-26.5t-4.5-39 0-39T104 62q4-5 9.5-8.5T124 51t9.5 7 4.5 11q2 14 .5 28.5T138 126q2 57 56 54 38-2 75-4.5t74-5.5q48-3 42-50-3-24-8-39.5T362 56t-26-12-40-3q-29 0-58 3t-58 4q-9 1-18-3.5L145 36q7-7 14-15.5T174 10q50-13 99.5-10T372 17q14 4 26.5 17.5T416 62q7 20 8.5 42.5T427 150q1 26-13.5 41.5T373 209t-53 2.5-54 2.5q-6 0-13 2t-10 7q-30 45-73 65.5T76 317q-8 2-18-2t-19-8q-2-1-2.5-8.5T38 290q9-4 18.5-7.5T75 279q35-2 63-17t53-38z"/></svg>

<?xml version="1.0" encoding="UTF-8" standalone="no"?><svg   xmlns:svg="http://www.w3.org/2000/svg"   xmlns="http://www.w3.org/2000/svg"   version="1.1"   width="521"   height="512"   viewBox="0 0 521 512">  <path     d="M296 123Q272 125 248.5 126.5T201 128Q195 128 188.5 122.5T176 112Q182 107 188 100T201 92Q224 90 248 91T295 91Q308 90 320.5 90.5T333 109Q333 114 321 119.5T300 130Q299 128 298 126.5T296 123zM86 512Q81 507 73.5 502.5T64 491Q63 484 69 474T81 462Q117 456 149 441.5T210 408.5T267 368.5T324 327Q326 325 329 323T334 320Q340 319 346 320T358 321Q356 326 355.5 332.5T352 342Q335 358 318 372T285 402Q247 439 201.5 462.5T108 506Q104 508 99.5 509zM269 445Q290 446 309.5 448.5T348 448Q377 443 397.5 424T430 379Q445 347 432 325T384 299Q374 297 368 288Q353 266 337.5 264T301 279Q266 307 230.5 334T158 386Q138 399 116.5 407T72 420Q65 422 55.5 415T37 403Q44 397 50 388.5T64 378Q94 373 120.5 361.5T172 335T221 303T269 270Q272 268 272.5 262T276 252Q281 245 286 236T296 227Q331 227 366 231T431 261Q452 278 464.5 304T477.5 359T463.5 417T416 468Q382 490 345 503Q312 515 291 498.5T269 445zM191 224Q179 223 167.5 222.5T145.5 219.5T126 210.5T110 192Q105 184 102 165.5T97.5 126.5T97.5 87.5T104 62Q108 57 113.5 53.5T124 51T133.5 58T138 69Q140 83 138.5 97.5T138 126Q140 183 194 180Q232 178 269 175.5T343 170Q391 167 385 120Q382 96 377 80.5T362 56T336 44T296 41Q267 41 238 44T180 48Q171 49 162 44.5L145 36Q152 29 159 20.5T174 10Q224 -3 273.5 0T372 17Q386 21 398.5 34.5T416 62Q423 82 424.5 104.5T427 150Q428 176 413.5 191.5T373 209T320 211.5T266 214Q260 214 253 216T243 223Q213 268 170 288.5T76 317Q68 319 58 315T39 307Q37 306 36.5 298.5T38 290Q47 286 56.5 282.5T75 279Q110 277 138 262T191 224z"     id="netease" /></svg>
